public/uploads/logo-cemex.svg

<svg width="138" height="38" viewBox="0 0 138 38" fill="none" xmlns="http://www.w3.org/2000/svg">
<path d="M49.3939 0.00277788L63.2265 0L63.1405 0.113803L31.6942 37.9254L18.1069 37.9494L49.3939 0.00277788ZM82.1369 22.9854L98.5436 23.0117L98.8722 23.1231C99.5804 23.3633 100.137 23.8267 100.455 24.441C100.793 25.0933 100.773 24.6447 100.773 31.5947V37.8541H97.0649V32.5643C97.0649 26.8725 97.0735 27.086 96.8281 26.7372C96.7743 26.6606 96.6312 26.5391 96.5102 26.4672L96.2904 26.3364L93.2156 26.3079V37.8542H89.6021L89.5775 27.0889L89.4354 26.8565C89.3475 26.7125 89.2059 26.5692 89.0637 26.4802L88.834 26.3365L85.8455 26.3079V37.8543H82.137L82.1369 22.9854ZM49.9516 37.4753C48.8597 37.1857 48.0306 36.3734 47.6961 35.2656C47.6151 34.9975 47.61 34.7027 47.61 30.2786V25.5765L47.7426 25.197C47.9283 24.6653 48.1576 24.3017 48.5582 23.904C48.8109 23.6531 49.0067 23.5102 49.2894 23.3702C50.0655 22.9858 49.482 23.0157 56.5175 22.9993L62.7962 22.9847V26.2652H57.3187C51.8534 26.2652 51.8407 26.2654 51.6379 26.3647C51.4967 26.4339 51.3954 26.5318 51.3062 26.6853L51.1777 26.9064V30.3735C51.1777 33.7977 51.1791 33.8431 51.2758 34.0307C51.3297 34.1352 51.4636 34.2848 51.5732 34.3632L51.7726 34.5057L62.7962 34.531V37.5692L56.541 37.5664C50.5902 37.5636 50.2696 37.5596 49.9516 37.4753ZM66.5226 37.4753C66.0846 37.3591 65.6049 37.1093 65.2842 36.8305C64.8712 36.4713 64.6656 36.1975 64.4355 35.6999C64.1558 35.0952 64.1592 35.1615 64.1592 30.3023C64.1592 25.2945 64.1457 25.5054 64.5162 24.7459C64.81 24.1439 65.2693 23.6727 65.8487 23.3792C66.632 22.9825 66.0174 23.0118 73.5697 23.0118H80.2826L80.3074 26.2641L68.3052 26.2889L68.1351 26.4069C68.0416 26.4717 67.9164 26.6107 67.8569 26.7156L67.7488 26.9064V30.3736C67.7488 33.7977 67.7502 33.8431 67.8468 34.0308C67.9008 34.1352 68.0346 34.2849 68.1443 34.3632L68.3436 34.5057L80.3061 34.5309V37.5692L73.5815 37.5664C67.1724 37.5636 66.8411 37.5596 66.5226 37.4753ZM104.998 37.4953C104.546 37.397 103.988 37.0984 103.621 36.7584C103.145 36.3169 102.843 35.8215 102.667 35.1936C102.586 34.9044 102.581 34.6074 102.581 30.3023C102.581 25.1816 102.561 25.4997 102.918 24.7468C103.155 24.2458 103.792 23.602 104.294 23.3566C105.047 22.9885 104.418 23.0177 111.958 23.0003L118.706 22.9846V26.2652H112.766C107.029 26.2652 106.819 26.268 106.651 26.3551C106.436 26.4662 106.337 26.5741 106.244 26.7997C106.181 26.9516 106.172 27.4246 106.172 30.3973C106.172 33.1646 106.184 33.8495 106.235 33.9736C106.319 34.1766 106.595 34.4171 106.816 34.4791C106.935 34.5127 108.908 34.529 112.85 34.5292L118.706 34.5294V37.5692L112.005 37.5657C106.457 37.5622 105.251 37.5502 104.998 37.4953ZM120.35 34.0307L120.464 33.782C120.685 33.3024 120.863 33.166 123.208 31.6797C124.424 30.9091 125.418 30.2679 125.418 30.2548C125.418 30.2317 122.494 28.3265 121.454 27.6723C120.835 27.2826 120.667 27.1298 120.512 26.8158L120.396 26.579V22.988H124.01L124.015 25.1965L126.557 26.8097C127.955 27.6969 129.132 28.4228 129.172 28.4228C129.212 28.4228 130.401 27.6862 131.813 26.7859L134.381 25.149L134.385 22.988H138V24.6961C138 26.3281 137.995 26.4163 137.899 26.679C137.724 27.1556 137.463 27.3571 135.09 28.8533C133.915 29.5937 132.955 30.2174 132.958 30.2391C132.962 30.2762 136.448 32.5619 137.108 32.9603C137.48 33.1848 137.729 33.4382 137.856 33.722C137.946 33.9246 137.951 34.0291 137.952 35.7287L137.953 37.5217L137.026 37.5215C136.516 37.5214 135.702 37.5074 135.218 37.4903L134.338 37.4591V35.3018L131.786 33.6807C130.382 32.7892 129.207 32.0597 129.174 32.0597C129.141 32.0597 127.955 32.8024 126.539 33.7101L123.964 35.3606L123.963 37.5217H120.349L120.35 34.0307ZM71.1521 28.925H80.3061V31.8697H71.1521V28.925ZM109.552 28.925H118.706V31.8697H109.552V28.925Z" fill="black"/>
<path d="M0.00658131 37.9169L31.2316 0.0508925H45.081L44.9617 0.181511L13.5029 38H6.7196C0.263811 38 -0.0603309 37.9958 0.00658131 37.9169Z" fill="black"/>
</svg>

<?xml version="1.0" encoding="utf-8"?>
<!-- Generator: Adobe Illustrator 16.0.0, SVG Export Plug-In . SVG Version: 6.00 Build 0)  -->
<!DOCTYPE svg PUBLIC "-//W3C//DTD SVG 1.1//EN" "http://www.w3.org/Graphics/SVG/1.1/DTD/svg11.dtd">
<svg version="1.1" id="Layer_1" xmlns="http://www.w3.org/2000/svg" xmlns:xlink="http://www.w3.org/1999/xlink" x="0px" y="0px"
	 width="138px" height="38px" viewBox="0 0 138 38" enable-background="new 0 0 138 38" xml:space="preserve">
<path fill="#4D4D4D" d="M49.394,0.003L63.227,0l-0.086,0.114L31.694,37.926l-13.587,0.023L49.394,0.003z M82.137,22.985
	l16.406,0.026l0.329,0.111c0.708,0.24,1.265,0.703,1.583,1.318c0.338,0.652,0.318,0.203,0.318,7.153v6.259h-3.709v-5.289
	c0-5.691,0.01-5.479-0.236-5.827c-0.054-0.077-0.197-0.198-0.318-0.271l-0.219-0.131l-3.075-0.027v11.545h-3.614l-0.023-10.765
	l-0.143-0.232c-0.088-0.144-0.229-0.287-0.372-0.376l-0.229-0.145l-2.988-0.027v11.546h-3.709V22.985z M49.952,37.475
	c-1.092-0.289-1.921-1.102-2.255-2.209c-0.081-0.268-0.086-0.563-0.086-4.986v-4.703l0.133-0.379
	c0.186-0.532,0.415-0.896,0.815-1.293c0.253-0.251,0.449-0.395,0.731-0.534c0.776-0.384,0.192-0.354,7.228-0.37l6.279-0.016v3.281
	h-5.478c-5.465,0-5.478,0-5.681,0.1c-0.141,0.068-0.242,0.166-0.332,0.32l-0.128,0.221v3.467c0,3.425,0.001,3.471,0.098,3.658
	c0.054,0.104,0.188,0.254,0.297,0.332l0.199,0.143l11.024,0.025v3.038l-6.255-0.003C50.59,37.563,50.27,37.56,49.952,37.475z
	 M66.522,37.475c-0.438-0.115-0.917-0.365-1.238-0.645c-0.413-0.359-0.619-0.633-0.849-1.131c-0.28-0.604-0.276-0.537-0.276-5.396
	c0-5.008-0.014-4.797,0.357-5.557c0.294-0.602,0.753-1.073,1.333-1.367c0.783-0.396,0.169-0.367,7.722-0.367h6.713l0.024,3.252
	l-12.002,0.025l-0.17,0.117c-0.094,0.065-0.219,0.205-0.278,0.31l-0.108,0.19v3.467c0,3.425,0.001,3.471,0.098,3.658
	c0.054,0.104,0.188,0.254,0.298,0.332l0.199,0.143l11.963,0.025v3.038l-6.725-0.003C67.172,37.563,66.841,37.56,66.522,37.475z
	 M104.998,37.495c-0.452-0.099-1.01-0.396-1.377-0.737c-0.477-0.441-0.778-0.937-0.954-1.564c-0.081-0.289-0.086-0.586-0.086-4.891
	c0-5.121-0.021-4.803,0.337-5.556c0.236-0.501,0.874-1.146,1.376-1.391c0.753-0.368,0.124-0.339,7.664-0.356l6.748-0.016v3.281
	h-5.94c-5.736,0-5.947,0.002-6.115,0.09c-0.215,0.111-0.313,0.219-0.406,0.444c-0.063,0.151-0.072,0.625-0.072,3.598
	c0,2.767,0.012,3.452,0.063,3.576c0.084,0.203,0.361,0.443,0.582,0.505c0.119,0.034,2.092,0.051,6.033,0.051h5.856v3.04
	l-6.701-0.004C106.457,37.563,105.251,37.551,104.998,37.495z M120.35,34.031l0.114-0.249c0.222-0.479,0.399-0.616,2.744-2.103
	c1.216-0.771,2.21-1.412,2.21-1.425c0-0.023-2.924-1.929-3.964-2.583c-0.619-0.389-0.787-0.542-0.942-0.855l-0.115-0.237v-3.591
	h3.613l0.006,2.208l2.541,1.613c1.398,0.888,2.575,1.613,2.615,1.613s1.229-0.737,2.641-1.637l2.568-1.638l0.004-2.16H138v1.708
	c0,1.632-0.005,1.72-0.102,1.983c-0.174,0.477-0.436,0.678-2.809,2.174c-1.175,0.74-2.135,1.363-2.132,1.386
	c0.004,0.037,3.49,2.323,4.149,2.722c0.373,0.224,0.621,0.478,0.748,0.762c0.09,0.202,0.096,0.307,0.097,2.006l0.001,1.793h-0.928
	c-0.51,0-1.323-0.014-1.808-0.031l-0.88-0.031v-2.157l-2.552-1.621c-1.404-0.892-2.579-1.621-2.612-1.621s-1.219,0.743-2.635,1.65
	l-2.575,1.65l-0.001,2.161h-3.613V34.031z M71.152,28.925h9.154v2.944h-9.154V28.925z M109.552,28.925h9.154v2.944h-9.154V28.925z"
	/>
<path fill="#4D4D4D" d="M0.006,37.917L31.231,0.051h13.85l-0.119,0.131L13.503,38H6.72C0.264,38-0.061,37.996,0.006,37.917z"/>
</svg>
